svgs/light/children.svg

<svg xmlns="http://www.w3.org/2000/svg" viewBox="0 0 640 512"><!--! Font Awesome Pro 6.4.2 by @fontawesome - https://fontawesome.com License - https://fontawesome.com/license (Commercial License) Copyright 2023 Fonticons, Inc. --><path d="M192 64a32 32 0 1 0 -64 0 32 32 0 1 0 64 0zM96 64a64 64 0 1 1 128 0A64 64 0 1 1 96 64zm416 0a32 32 0 1 0 -64 0 32 32 0 1 0 64 0zm-96 0a64 64 0 1 1 128 0A64 64 0 1 1 416 64zm64 128c-11.6 0-22.6 3.4-32 9.6V352h64V201.6c-9.4-6.2-20.4-9.6-32-9.6zM448 496c0 8.8-7.2 16-16 16s-16-7.2-16-16V243.3l-42.4 69.1c-4.6 7.5-14.5 9.9-22 5.3s-9.9-14.5-5.3-22L403.2 203c16.4-26.7 45.5-43 76.8-43s60.4 16.3 76.8 43l56.8 92.6c4.6 7.5 2.3 17.4-5.3 22s-17.4 2.3-22-5.3L544 243.3V496c0 8.8-7.2 16-16 16s-16-7.2-16-16V384H448V496zM96 400H72c-5 0-9.7-2.3-12.7-6.3s-4-9.1-2.8-13.9l38-141.2L45.3 312.8c-4.9 7.4-14.8 9.4-22.2 4.5s-9.4-14.8-4.5-22.2L79.8 203c16.8-25.3 44.4-41.1 74.5-42.9c1.4-.1 2.9-.2 4.4-.2H160h1.3c1.5 0 2.9 .1 4.4 .2c30.1 1.8 57.7 17.6 74.5 42.9l61.1 92.1c4.9 7.4 2.9 17.3-4.5 22.2s-17.3 2.9-22.2-4.5l-49.2-74.2 38 141.2c1.3 4.8 .3 9.9-2.8 13.9s-7.7 6.3-12.7 6.3H224v96c0 8.8-7.2 16-16 16s-16-7.2-16-16V400H128v96c0 8.8-7.2 16-16 16s-16-7.2-16-16V400zm60.5-207.9c-10 .9-18.4 7.9-21.1 17.7L92.9 368H227.1L184.5 209.8c-2.6-9.8-11.1-16.8-21.1-17.7c-1.2-.1-2.3-.1-3.5-.1s-2.3 0-3.5 .1z"/></svg>

<svg xmlns="http://www.w3.org/2000/svg" viewBox="0 0 640 512"><!--! Font Awesome Pro 6.1.1 by @fontawesome - https://fontawesome.com License - https://fontawesome.com/license (Commercial License) Copyright 2022 Fonticons, Inc. --><path d="M224 64C224 99.35 195.3 128 160 128C124.7 128 96 99.35 96 64C96 28.65 124.7 0 160 0C195.3 0 224 28.65 224 64zM160 32C142.3 32 128 46.33 128 64C128 81.67 142.3 96 160 96C177.7 96 192 81.67 192 64C192 46.33 177.7 32 160 32zM544 64C544 99.35 515.3 128 480 128C444.7 128 416 99.35 416 64C416 28.65 444.7 0 480 0C515.3 0 544 28.65 544 64zM480 32C462.3 32 448 46.33 448 64C448 81.67 462.3 96 480 96C497.7 96 512 81.67 512 64C512 46.33 497.7 32 480 32V32zM432 512C423.2 512 416 504.8 416 496V243.3L373.6 312.4C369 319.9 359.2 322.3 351.6 317.6C344.1 313 341.7 303.2 346.4 295.6L403.2 203C419.6 176.3 448.7 160 480 160C511.4 160 540.5 176.3 556.8 203L613.6 295.6C618.3 303.2 615.9 313 608.4 317.6C600.8 322.3 590.1 319.9 586.4 312.4L544 243.3V496C544 504.8 536.8 512 528 512C519.2 512 512 504.8 512 496V384H448V496C448 504.8 440.8 512 432 512H432zM480 192C468.4 192 457.4 195.4 448 201.6V352H512V201.6C502.7 195.4 491.6 192 480 192zM96.01 400H72C67.02 400 62.33 397.7 59.3 393.7C56.27 389.8 55.26 384.6 56.55 379.8L94.57 238.6L45.34 312.8C40.45 320.2 30.52 322.2 23.16 317.3C15.8 312.4 13.79 302.5 18.67 295.2L79.78 203C96.56 177.8 124.2 161.1 154.3 160.2C155.7 160.1 157.2 160 158.7 160H161.4C162.8 160 164.3 160.1 165.7 160.2C195.8 161.1 223.4 177.8 240.2 203L301.3 295.2C306.2 302.5 304.2 312.4 296.9 317.3C289.5 322.2 279.6 320.2 274.7 312.8L225.4 238.6L263.5 379.8C264.7 384.6 263.7 389.8 260.7 393.7C257.7 397.7 252.1 400 248 400H224V496C224 504.8 216.8 512 208 512C199.2 512 192 504.8 192 496V400H128V496C128 504.8 120.8 512 112 512C103.2 512 96.01 504.8 96.01 496V400zM135.5 209.8L92.88 368H227.1L184.5 209.8C181.9 199.1 173.4 192.1 163.5 192.1C162.3 192 161.2 192 160 192C158.8 192 157.7 192 156.5 192.1C146.6 192.1 138.1 199.1 135.5 209.8V209.8z"/></svg>
